X: 24410
T: Lovely Nymph, The
R: waltz
M: 3/4
K: Cmajor
EF GE DC|G4 AB|c2 B2 A2|GE C2 (3CDE|F2 E2 c2|
[1 A4 G2|FE D2 C2|D6:|2 A3 G F2|ED C2 B,2|C4 z2||
c3 d e2|e2 d2 c2|G2 E2 (3EFG|A4 Bc|
C4 D2|E2 G2 c2|ed c2 d2|G4 z F|
EF GE DC|G4 AB|c2 B2 A2|GE C2 (3CDE|
F2 E2 c2|A3 G F2|ED C2 B,2|C4 z2||

